X:98
M:2/4
L:1/8
Q:"Spiritoso  "1/4=140
K:G
!mf!L[B2G2E2]E>F|A<A F<D|L[B2G2E2]E>F|A>F E2|\
L[B2G2E2]E>F|A<A (FD)|L[B2G2E2]E>F|(A<F) E H||
([EBG]>d) B>d|([AF]>B) ([dF]>e)|\
([dF]>[BG]) ([AF]>d)|([BG]>d) ([AF]F)|(A>F) [E2^C2A,2]||

